src/icons/svg/fixed_tips.svg

<?xml version="1.0" encoding="UTF-8"?>
<svg width="12px" height="12px" viewBox="0 0 12 12" version="1.1" xmlns="http://www.w3.org/2000/svg" xmlns:xlink="http://www.w3.org/1999/xlink">
    <!-- Generator: Sketch 54.1 (76490) - https://sketchapp.com -->
    <title>解释说明</title>
    <desc>Created with Sketch.</desc>
    <g id="页面1" stroke="none" stroke-width="1" fill="none" fill-rule="evenodd">
        <g id="M端-定期2复制-8" transform="translate(-146.000000, -409.000000)" fill="#9AA2B2">
            <g id="到期转入活期" transform="translate(0.000000, 391.000000)">
                <g id="解释说明" transform="translate(146.000000, 18.000000)">
                    <path d="M6,0.888888889 C3.18155556,0.888888889 0.888888889,3.18177778 0.888888889,6 C0.888888889,8.81822222 3.18155556,11.1111111 6,11.1111111 C8.81844444,11.1111111 11.1111111,8.81822222 11.1111111,6 C11.1111111,3.18177778 8.81844444,0.888888889 6,0.888888889 M6,12 C2.69155556,12 0,9.30844444 0,6 C0,2.69155556 2.69155556,0 6,0 C9.30844444,0 12,2.69155556 12,6 C12,9.30844444 9.30844444,12 6,12" id="Fill-1"></path>
                    <path d="M6.62282222,2.44226667 L6.39348889,7.54471111 L5.60637778,7.54471111 L5.37704444,2.44226667 L6.62282222,2.44226667 Z M6.52304444,8.33182222 C6.6626,8.46137778 6.73237778,8.63093333 6.73237778,8.84026667 C6.73237778,9.04937778 6.6626,9.21893333 6.52304444,9.35848889 C6.37371111,9.48804444 6.19415556,9.55782222 5.99482222,9.55782222 C5.79548889,9.55782222 5.62615556,9.48804444 5.4866,9.34848889 C5.33726667,9.20893333 5.26726667,9.03937778 5.26726667,8.84026667 C5.26726667,8.63093333 5.33726667,8.46137778 5.4866,8.33182222 C5.62615556,8.19226667 5.79548889,8.13248889 5.99482222,8.13248889 C6.20415556,8.13248889 6.38348889,8.19226667 6.52304444,8.33182222 L6.52304444,8.33182222 Z" id="Fill-3"></path>
                </g>
            </g>
        </g>
    </g>
</svg>

<svg width="12" height="12" xmlns="http://www.w3.org/2000/svg"><g fill="#9AA2B2" fill-rule="evenodd"><path d="M6 .889A5.117 5.117 0 00.889 6 5.117 5.117 0 006 11.111 5.117 5.117 0 0011.111 6 5.117 5.117 0 006 .889M6 12c-3.308 0-6-2.692-6-6s2.692-6 6-6 6 2.692 6 6-2.692 6-6 6"/><path d="M6.623 2.442l-.23 5.103h-.787l-.229-5.103h1.246zm-.1 5.89c.14.13.21.299.21.508 0 .21-.07.379-.21.518a.79.79 0 01-.528.2c-.2 0-.369-.07-.508-.21a.666.666 0 01-.22-.508c0-.21.07-.379.22-.508.14-.14.308-.2.508-.2.21 0 .388.06.528.2z"/></g></svg>
